google-analytics-dashboard-for-wp/lite/assets/vue/img/yir-icon-world.svg

<svg width="40" height="40" viewBox="0 0 40 40" fill="none" xmlns="http://www.w3.org/2000/svg">
    <g clip-path="url(#clip0_54_15047)">
        <path d="M9.68751 17.2459C9.85678 17.2459 10.0456 17.2719 10.2539 17.324C10.4623 17.3761 10.6706 17.4477 10.8789 17.5388C11.0873 17.63 11.2956 17.7146 11.5039 17.7927C11.7123 17.8709 11.9011 17.949 12.0703 18.0271L11.7578 18.0662C11.6537 18.0792 11.543 18.0857 11.4258 18.0857C11.2044 18.0857 11.0026 18.0532 10.8203 17.988C10.638 17.9229 10.4688 17.8383 10.3125 17.7341C10.1563 17.63 10 17.5519 9.84376 17.4998C9.68751 17.4477 9.54428 17.4086 9.41407 17.3826C9.28387 17.3826 9.16668 17.4086 9.06251 17.4607C8.95835 17.5128 8.85418 17.5714 8.75001 17.6365C8.75001 17.5844 8.70444 17.5584 8.61329 17.5584C8.70444 17.4672 8.87371 17.3956 9.12111 17.3435C9.3685 17.2914 9.5573 17.2589 9.68751 17.2459ZM12.3242 18.1248C12.8581 18.1248 13.3464 18.2159 13.7891 18.3982C13.6068 18.4633 13.4245 18.5154 13.2422 18.5545C13.0599 18.5935 12.8711 18.6196 12.6758 18.6326C12.4154 18.6326 12.181 18.6065 11.9727 18.5545C12.0378 18.4503 12.1029 18.3852 12.168 18.3591C12.2331 18.3331 12.2852 18.255 12.3242 18.1248ZM20 -0.000231621C21.8359 -0.000231621 23.6003 0.240654 25.293 0.722425C26.9857 1.2042 28.5742 1.87477 30.0586 2.73414C31.543 3.59352 32.8971 4.6417 34.1211 5.87867C35.3451 7.11565 36.3867 8.46331 37.2461 9.92164C38.1055 11.38 38.7826 12.9685 39.2774 14.6873C39.7721 16.406 40.013 18.1769 40 19.9998C40 21.8357 39.7591 23.6 39.2774 25.2927C38.7956 26.9854 38.125 28.574 37.2656 30.0584C36.4063 31.5427 35.3581 32.8969 34.1211 34.1209C32.8841 35.3448 31.5365 36.3865 30.0781 37.2459C28.6198 38.1052 27.0313 38.7823 25.3125 39.2771C23.5938 39.7719 21.8229 40.0128 20 39.9998C18.1641 39.9998 16.3998 39.7589 14.707 39.2771C13.0143 38.7953 11.4258 38.1248 9.94142 37.2654C8.45704 36.406 7.10288 35.3578 5.87892 34.1209C4.65496 32.8839 3.61329 31.5362 2.75392 30.0779C1.89454 28.6196 1.21746 27.031 0.722669 25.3123C0.227877 23.5935 -0.0130083 21.8227 1.25201e-05 19.9998C1.25201e-05 18.1638 0.240898 16.3995 0.722669 14.7068C1.20444 13.0141 1.87501 11.4255 2.73439 9.94117C3.59376 8.4568 4.64194 7.10263 5.87892 5.87867C7.1159 4.65472 8.46355 3.61305 9.92189 2.75367C11.3802 1.8943 12.9688 1.21722 14.6875 0.722425C16.4063 0.227633 18.1771 -0.0132525 20 -0.000231621ZM34.8828 10.8396C34.7005 10.5532 34.5182 10.2797 34.3359 10.0193C34.1537 9.75888 33.9649 9.49196 33.7695 9.21852C33.7435 9.33571 33.7109 9.42034 33.6719 9.47242C33.6328 9.52451 33.6068 9.6417 33.5938 9.82399C33.5938 9.94117 33.6393 10.0519 33.7305 10.156C33.8216 10.2602 33.9388 10.3644 34.082 10.4685C34.2253 10.5727 34.3685 10.6508 34.5117 10.7029C34.655 10.755 34.7787 10.8005 34.8828 10.8396ZM33.5352 8.92555C33.5352 9.02972 33.5156 9.10133 33.4766 9.14039H33.5938C33.6458 9.14039 33.6849 9.1469 33.7109 9.15992L33.5352 8.92555ZM20 37.4998C21.4844 37.4998 22.9362 37.311 24.3555 36.9334C25.7748 36.5558 27.1159 36.0219 28.3789 35.3318C29.6419 34.6417 30.8138 33.7953 31.8945 32.7927C32.9753 31.7901 33.9193 30.6703 34.7266 29.4334C34.5573 29.0427 34.3945 28.6456 34.2383 28.242C34.082 27.8383 34.0039 27.4216 34.0039 26.992C34.0039 26.5232 34.0234 26.1456 34.0625 25.8591C34.1016 25.5727 34.1471 25.3188 34.1992 25.0974C34.2513 24.8761 34.2774 24.6873 34.2774 24.531C34.2774 24.3748 34.2578 24.1729 34.2188 23.9255C34.1797 23.6782 34.069 23.4112 33.8867 23.1248C33.7044 22.8383 33.4636 22.4347 33.1641 21.9138C33.1771 21.8227 33.1966 21.699 33.2227 21.5427C33.2487 21.3865 33.2748 21.2237 33.3008 21.0545C33.3268 20.8852 33.3333 20.7289 33.3203 20.5857C33.3073 20.4425 33.2748 20.3188 33.2227 20.2146C32.8841 20.1755 32.5326 20.1039 32.168 19.9998C31.8034 19.8956 31.4779 19.7394 31.1914 19.531L31.3086 19.4334C31.1393 19.4724 30.9701 19.5245 30.8008 19.5896C30.6315 19.6547 30.4688 19.7263 30.3125 19.8045C30.1563 19.8826 29.987 19.9347 29.8047 19.9607C29.6224 19.9867 29.4466 20.0128 29.2774 20.0388L28.9649 19.9998L29.0234 19.863C28.8412 19.9151 28.6458 19.9802 28.4375 20.0584C28.2292 20.1365 28.0274 20.1755 27.832 20.1755C27.7018 20.1755 27.513 20.13 27.2656 20.0388C27.0182 19.9477 26.7708 19.837 26.5234 19.7068C26.2761 19.5766 26.0547 19.4334 25.8594 19.2771C25.6641 19.1209 25.5664 18.9711 25.5664 18.8279L25.6055 18.7693C25.5404 18.6912 25.4557 18.6196 25.3516 18.5545C25.2474 18.4894 25.1498 18.4242 25.0586 18.3591C24.9675 18.294 24.8828 18.2224 24.8047 18.1443C24.7266 18.0662 24.694 17.975 24.707 17.8709L24.9219 17.6951L24.4727 17.6365L24.3164 17.0505C24.3425 17.1157 24.4011 17.1417 24.4922 17.1287C24.5833 17.1157 24.655 17.0896 24.707 17.0505L24.0039 16.6795L24.4922 15.4295C24.3099 14.7524 24.2643 14.2315 24.3555 13.867C24.4466 13.5024 24.6224 13.2029 24.8828 12.9685C25.1432 12.7341 25.4297 12.4998 25.7422 12.2654C26.0547 12.031 26.3737 11.712 26.6992 11.3084L26.6406 11.074L27.9297 9.51149L28.2227 9.47242C28.5873 9.47242 28.9974 9.4594 29.4531 9.43336C29.9089 9.40732 30.3711 9.36175 30.8399 9.29664C31.3086 9.23154 31.7708 9.16644 32.2266 9.10133C32.6823 9.03623 33.099 8.95159 33.4766 8.84742C33.0599 8.35263 32.6237 7.88388 32.168 7.44117C31.7123 6.99847 31.224 6.57529 30.7031 6.17164C30.5599 6.22373 30.3841 6.29534 30.1758 6.38649C29.9675 6.47763 29.7591 6.59482 29.5508 6.73805C29.3425 6.88128 29.1797 7.03753 29.0625 7.2068C28.9453 7.37607 28.8737 7.55185 28.8477 7.73414L28.9649 8.10524C28.7305 8.48284 28.4701 8.71722 28.1836 8.80836C27.8971 8.89951 27.6042 8.95159 27.3047 8.96461C27.0052 8.97763 26.6927 8.97763 26.3672 8.96461C26.0417 8.95159 25.7292 9.01019 25.4297 9.14039L25.1172 8.47633L25.4102 7.34352L25.0781 6.85524L28.457 5.80055C28.3138 5.43597 28.0794 5.16253 27.7539 4.98024C27.4284 4.79795 27.0703 4.7068 26.6797 4.7068V4.51149L27.7734 4.33571C26.5625 3.73675 25.306 3.28102 24.0039 2.96852C22.7018 2.65602 21.3672 2.49977 20 2.49977C18.8672 2.49977 17.7474 2.61045 16.6406 2.8318C15.5339 3.05315 14.4662 3.37216 13.4375 3.78883C12.4089 4.2055 11.4128 4.72633 10.4492 5.35133C9.48569 5.97633 8.60678 6.67946 7.81251 7.46071C8.15105 7.46071 8.41147 7.54534 8.59376 7.71461C8.77605 7.88388 8.94532 8.07269 9.10157 8.28102C9.25782 8.48935 9.42059 8.67815 9.58986 8.84742C9.75913 9.0167 9.98699 9.10784 10.2734 9.12086L10.5859 8.88649L10.5469 8.4568L11.1914 7.53883L10.6836 6.09352C10.7487 6.05446 10.8464 5.98935 10.9766 5.89821C11.1068 5.80706 11.2175 5.76149 11.3086 5.76149C11.6992 5.76149 11.9987 5.78102 12.207 5.82008C12.4154 5.85914 12.5977 5.93076 12.7539 6.03492C12.9102 6.13909 13.0469 6.28883 13.1641 6.48414C13.2813 6.67946 13.4636 6.92685 13.7109 7.22633L14.4141 6.67946C14.5443 6.73154 14.7526 6.81617 15.0391 6.93336C15.3255 7.05055 15.6185 7.19378 15.918 7.36305C16.2175 7.53232 16.4714 7.7081 16.6797 7.89039C16.888 8.07269 16.9987 8.24196 17.0117 8.39821C17.0117 8.59352 16.9401 8.74977 16.7969 8.86696C16.6537 8.98414 16.4649 9.0818 16.2305 9.15992C15.9961 9.23805 15.7552 9.29664 15.5078 9.33571C15.2604 9.37477 15.013 9.42685 14.7656 9.49196C14.5182 9.55706 14.3294 9.62216 14.1992 9.68727C14.069 9.75237 13.9909 9.86305 13.9649 10.0193L15.0977 10.3904C14.8373 10.6117 14.5573 10.8136 14.2578 10.9959C13.9583 11.1782 13.6458 11.3474 13.3203 11.5037L13.3984 11.8357L11.6016 12.5388V13.0857L11.4649 13.1443L11.5625 12.4607L11.4844 12.4412C11.3932 12.4412 11.3412 12.4607 11.3281 12.4998C11.3151 12.5388 11.3086 12.5844 11.3086 12.6365C11.3086 12.6886 11.3216 12.7407 11.3477 12.7927C11.3737 12.8448 11.3802 12.8839 11.3672 12.9099L11.1133 12.7732L11.1524 12.8513C11.1524 12.8904 11.1719 12.949 11.2109 13.0271C11.25 13.1052 11.3021 13.1769 11.3672 13.242C11.4323 13.3071 11.4844 13.3722 11.5234 13.4373C11.5625 13.5024 11.5886 13.5349 11.6016 13.5349C11.6016 13.574 11.5755 13.613 11.5234 13.6521C11.4714 13.6912 11.4063 13.7172 11.3281 13.7302C11.25 13.7433 11.1979 13.7628 11.1719 13.7888C11.1458 13.8149 11.1458 13.8214 11.1719 13.8084C11.3542 13.8084 11.3932 13.8214 11.2891 13.8474C11.1849 13.8735 11.0221 13.9386 10.8008 14.0427C10.5794 14.1469 10.3776 14.2966 10.1953 14.492C10.013 14.6873 9.90887 14.9737 9.88282 15.3513C9.88282 15.5727 9.88934 15.7875 9.90236 15.9959C9.91538 16.2042 9.90887 16.419 9.88282 16.6404C9.70053 16.1456 9.4271 15.768 9.06251 15.5076C8.69793 15.2472 8.25522 15.117 7.73439 15.117L6.89454 15.1951L7.3047 15.4685C7.08335 15.4425 6.85548 15.4164 6.62111 15.3904C6.38673 15.3644 6.14585 15.3578 5.89845 15.3709C5.65105 15.3839 5.4297 15.436 5.23439 15.5271C5.03907 15.6183 4.84376 15.755 4.64845 15.9373L4.53126 16.8162C4.53126 17.2328 4.62241 17.5714 4.8047 17.8318C4.98699 18.0922 5.306 18.2289 5.76173 18.242C6.15236 18.242 6.53647 18.1834 6.91407 18.0662C7.29168 17.949 7.66277 17.8123 8.02736 17.656C7.91017 17.9425 7.77996 18.2159 7.63673 18.4763C7.4935 18.7367 7.38934 19.0232 7.32423 19.3357L7.57814 19.4529C7.89064 19.2446 8.1771 19.212 8.43751 19.3552C8.69793 19.4985 8.95184 19.7068 9.19923 19.9802C9.44663 20.2537 9.70053 20.5336 9.96095 20.8201C10.2214 21.1065 10.5013 21.3149 10.8008 21.4451L10.1367 21.7966L8.57423 20.9177C8.58725 20.9438 8.60027 21.0024 8.61329 21.0935C8.62631 21.1847 8.6198 21.2042 8.59376 21.1521L7.89064 19.9607C7.47397 19.9477 7.03126 19.8826 6.56251 19.7654C6.09376 19.6482 5.6185 19.492 5.13673 19.2966C4.65496 19.1013 4.20574 18.8865 3.78907 18.6521C3.37241 18.4177 2.98829 18.1703 2.63673 17.9099L2.50001 19.9998C2.50001 21.5883 2.71486 23.1378 3.14454 24.6482C3.57423 26.1586 4.1797 27.5779 4.96095 28.906C5.7422 30.2341 6.69923 31.4451 7.83204 32.5388C8.96486 33.6326 10.2214 34.5636 11.6016 35.3318C11.5365 35.0584 11.53 34.7849 11.582 34.5115C11.6341 34.238 11.6992 33.9646 11.7774 33.6912C11.8555 33.4177 11.9401 33.1443 12.0313 32.8709C12.1224 32.5974 12.168 32.3175 12.168 32.031C12.168 31.6144 12.1029 31.1782 11.9727 30.7224C11.8425 30.2667 11.6862 29.8045 11.5039 29.3357C11.3216 28.867 11.1198 28.4047 10.8984 27.949C10.6771 27.4933 10.5013 27.0636 10.3711 26.6599C10.2409 26.2563 10.1367 25.8787 10.0586 25.5271C9.98048 25.1755 10.0195 24.8696 10.1758 24.6091L9.88282 24.4724C9.96095 24.2901 10.0651 24.1144 10.1953 23.9451C10.3255 23.7758 10.4623 23.6065 10.6055 23.4373C10.7487 23.268 10.8594 23.0857 10.9375 22.8904C11.0156 22.6951 11.0612 22.4998 11.0742 22.3045C11.0742 22.1742 11.0482 22.0375 10.9961 21.8943C10.944 21.7511 10.8984 21.6144 10.8594 21.4841L11.2695 21.5818C11.4909 21.074 11.7904 20.7289 12.168 20.5466C12.5456 20.3644 13.0208 20.2667 13.5938 20.2537C13.6589 20.2537 13.7956 20.2797 14.0039 20.3318C14.2123 20.3839 14.4336 20.4555 14.668 20.5466C14.9024 20.6378 15.1237 20.7094 15.332 20.7615C15.5404 20.8136 15.6966 20.8657 15.8008 20.9177C15.8008 21.0089 15.8529 21.0675 15.957 21.0935C16.0612 21.1196 16.1198 21.1651 16.1328 21.2302L16.0938 21.3865C16.1328 21.3995 16.224 21.4451 16.3672 21.5232C16.5104 21.6013 16.6667 21.699 16.8359 21.8162C17.0052 21.9334 17.155 22.0375 17.2852 22.1287C17.4154 22.2198 17.5065 22.2914 17.5586 22.3435C17.793 22.3435 18.112 22.4216 18.5156 22.5779C18.9193 22.7341 19.362 22.9295 19.8438 23.1638C20.3255 23.3982 20.8008 23.6782 21.2695 24.0037C21.7383 24.3292 22.181 24.6547 22.5977 24.9802C23.0143 25.3058 23.3333 25.6313 23.5547 25.9568C23.7761 26.2823 23.9063 26.5688 23.9453 26.8162L23.2813 27.5193C23.3333 28.1834 23.2878 28.6912 23.1445 29.0427C23.0013 29.3943 22.78 29.6873 22.4805 29.9216C22.181 30.156 21.8359 30.3513 21.4453 30.5076C21.0547 30.6638 20.6315 30.8852 20.1758 31.1716C20.1758 31.4321 20.1107 31.712 19.9805 32.0115C19.8503 32.311 19.6875 32.5974 19.4922 32.8709C19.2969 33.1443 19.0625 33.3722 18.7891 33.5545C18.5156 33.7367 18.2422 33.8279 17.9688 33.8279L17.1484 33.2029C17.1745 33.2289 17.1745 33.2745 17.1484 33.3396C17.1224 33.4047 17.0899 33.4177 17.0508 33.3787C17.181 33.6261 17.2136 33.9125 17.1484 34.238C17.0833 34.5636 16.9727 34.8956 16.8164 35.2341C16.6602 35.5727 16.4844 35.8917 16.2891 36.1912C16.0938 36.4907 15.918 36.7446 15.7617 36.9529C16.4649 37.1352 17.168 37.2719 17.8711 37.363C18.5742 37.4542 19.2839 37.4998 20 37.4998Z" fill="white"/>
    </g>
    <defs>
        <clipPath id="clip0_54_15047">
            <rect width="40" height="40" fill="white"/>
        </clipPath>
    </defs>
</svg>

<svg xmlns="http://www.w3.org/2000/svg" width="40" height="40" fill="none" viewBox="0 0 40 40"><g clip-path="url(#a)"><path fill="#fff" d="M9.688 17.246q.254 0 .566.078t.625.215.625.254.566.234l-.312.04q-.156.018-.332.019-.332 0-.606-.098a2.3 2.3 0 0 1-.508-.254 2 2 0 0 0-.468-.234 4 4 0 0 0-.43-.117.8.8 0 0 0-.351.078q-.157.077-.313.176 0-.08-.137-.079.136-.135.508-.215.37-.078.567-.097m2.636.879q.8 0 1.465.273a4 4 0 0 1-1.113.234q-.39 0-.703-.078.098-.156.195-.195.098-.039.156-.234M20 0q2.754 0 5.293.722a21 21 0 0 1 4.766 2.012A19.3 19.3 0 0 1 34.12 5.88a20.6 20.6 0 0 1 3.125 4.043 20.5 20.5 0 0 1 2.031 4.765Q40.02 17.266 40 20q0 2.754-.723 5.293a21 21 0 0 1-2.011 4.765 19.3 19.3 0 0 1-3.145 4.063 20.6 20.6 0 0 1-4.043 3.125 20.5 20.5 0 0 1-4.765 2.031Q22.733 40.02 20 40q-2.754 0-5.293-.723a21 21 0 0 1-4.766-2.012 19.3 19.3 0 0 1-4.062-3.144 20.6 20.6 0 0 1-3.125-4.043 20.5 20.5 0 0 1-2.031-4.766A18.6 18.6 0 0 1 0 20q0-2.754.723-5.293A21 21 0 0 1 2.734 9.94 19.3 19.3 0 0 1 5.88 5.88a20.6 20.6 0 0 1 4.043-3.125A20.5 20.5 0 0 1 14.687.722 18.6 18.6 0 0 1 20 0m14.883 10.84a23 23 0 0 0-.547-.82q-.273-.391-.566-.801a.7.7 0 0 1-.098.253q-.06.08-.078.352 0 .176.136.332.138.156.352.313.214.156.43.234zm-1.348-1.914q0 .156-.058.214h.117q.077 0 .117.02zM20 37.5q2.226 0 4.355-.567a18 18 0 0 0 4.024-1.601 17.5 17.5 0 0 0 3.515-2.54 18 18 0 0 0 2.833-3.359q-.254-.585-.489-1.191a3.4 3.4 0 0 1-.234-1.25q0-.703.059-1.133.058-.429.136-.762.078-.331.078-.566t-.058-.605q-.06-.372-.332-.801-.274-.43-.723-1.211.02-.137.059-.371.039-.235.078-.488a2 2 0 0 0 .02-.47 1 1 0 0 0-.098-.37q-.508-.06-1.055-.215a3.1 3.1 0 0 1-.977-.469l.118-.098q-.255.059-.508.157a6 6 0 0 0-.488.215q-.235.117-.508.156-.274.039-.528.078l-.312-.04.058-.136a8 8 0 0 0-.585.195 1.7 1.7 0 0 1-.606.117q-.195 0-.566-.136a6 6 0 0 1-.743-.332 4 4 0 0 1-.664-.43q-.293-.234-.293-.45l.04-.058a1 1 0 0 0-.254-.214 6 6 0 0 1-.293-.196 2 2 0 0 1-.254-.215.32.32 0 0 1-.098-.273l.215-.176-.45-.058-.156-.587q.04.099.176.079a.46.46 0 0 0 .215-.079l-.703-.37.488-1.25q-.273-1.016-.137-1.563.137-.547.528-.899.39-.35.86-.703a5.5 5.5 0 0 0 .956-.957l-.058-.234 1.289-1.563.293-.039q.546 0 1.23-.039t1.387-.136 1.387-.196q.683-.098 1.25-.254a19 19 0 0 0-1.309-1.406 17 17 0 0 0-1.465-1.27 9 9 0 0 0-.527.215 4 4 0 0 0-.625.352q-.312.215-.488.469-.177.254-.215.527l.117.371q-.352.567-.781.703-.43.138-.88.157-.448.02-.937 0a2.1 2.1 0 0 0-.937.175l-.313-.664.293-1.132-.332-.489 3.379-1.054a1.56 1.56 0 0 0-.703-.82 2.16 2.16 0 0 0-1.074-.274V4.51l1.093-.175a18 18 0 0 0-3.77-1.367A17 17 0 0 0 20 2.499q-1.7 0-3.36.333-1.66.332-3.203.957A17.7 17.7 0 0 0 10.45 5.35a16.7 16.7 0 0 0-2.636 2.11q.507 0 .78.254.274.254.509.566t.488.566.683.274l.313-.235-.04-.43.645-.917-.507-1.445q.097-.06.293-.196t.332-.137q.586 0 .898.06.312.058.547.214.234.156.41.45.176.292.547.741l.703-.547.625.254q.43.176.879.43.45.254.762.527.312.274.332.508a.57.57 0 0 1-.215.469 1.8 1.8 0 0 1-.567.293 4.5 4.5 0 0 1-.722.176q-.372.058-.742.156-.372.098-.567.195a.43.43 0 0 0-.234.332l1.133.371q-.39.333-.84.606t-.938.508l.078.332-1.796.703v.547l-.137.058.098-.683-.079-.02q-.136 0-.156.059a.4.4 0 0 0-.02.136q0 .08.04.157.038.077.02.117l-.255-.137.04.078q0 .06.058.176.058.117.156.215t.156.195q.06.098.079.098 0 .058-.079.117a.44.44 0 0 1-.195.078q-.117.02-.156.059t0 .02q.273 0 .117.038a3 3 0 0 0-.488.196 2 2 0 0 0-.606.449q-.273.293-.312.86 0 .33.02.644.018.312-.02.644-.274-.742-.82-1.132-.547-.39-1.329-.391l-.84.078.41.274q-.331-.04-.683-.079a4.4 4.4 0 0 0-.723-.02 1.8 1.8 0 0 0-.664.157q-.292.137-.586.41l-.117.88q0 .624.274 1.015.273.39.957.41.585 0 1.152-.176a11 11 0 0 0 1.113-.41q-.176.43-.39.82t-.313.86l.254.117q.47-.312.86-.098.39.215.761.625l.762.84q.39.43.84.625l-.664.352-1.563-.88a.7.7 0 0 1 .04.176q.018.137-.02.06L7.89 19.96a6.3 6.3 0 0 1-1.328-.196 11.8 11.8 0 0 1-2.773-1.113q-.627-.352-1.153-.742L2.5 20q0 2.383.645 4.648.645 2.266 1.816 4.258a17 17 0 0 0 2.871 3.633 18 18 0 0 0 3.77 2.793 1.9 1.9 0 0 1-.02-.82q.078-.41.195-.82.118-.411.254-.821a2.6 2.6 0 0 0 .137-.84q0-.625-.195-1.309a16 16 0 0 0-.47-1.386 19 19 0 0 0-.605-1.387 10 10 0 0 1-.527-1.29q-.195-.604-.312-1.132-.118-.527.117-.918l-.293-.137q.117-.273.312-.527t.41-.508a2 2 0 0 0 .47-1.133q0-.195-.079-.41a8 8 0 0 1-.137-.41l.41.098q.332-.762.899-1.035.567-.274 1.426-.293.098 0 .41.078t.664.215q.351.135.664.215.313.078.469.156 0 .136.156.175.156.04.176.137l-.04.157q.06.018.274.136.215.117.469.293t.45.313q.194.136.273.214.351 0 .957.235.605.234 1.328.586.723.351 1.425.84.704.487 1.329.976.624.488.957.977.332.488.39.86l-.664.702q.078.996-.136 1.524a2.1 2.1 0 0 1-.665.879q-.448.352-1.035.586-.585.234-1.27.664 0 .39-.195.84-.195.448-.488.859-.293.41-.703.683t-.82.274l-.82-.625q.037.04 0 .137-.04.098-.098.039.195.371.097.859a4.5 4.5 0 0 1-.332.996 7.5 7.5 0 0 1-.527.957q-.293.45-.527.762 1.054.273 2.11.41 1.053.137 2.128.137"/></g><defs><clipPath id="a"><path fill="#fff" d="M0 0h40v40H0z"/></clipPath></defs></svg>
